X:1
T:Les Blés d'or
T:La chanson des blés d'or
T:Frédéric Doria 
T:Camille Soubise  et L. Le Maître
C:Frédéric Doria
Z:Camille Soubise  et L. Le Maître
L:1/8
M:3/4
K:G
V:1 treble nm="Violon" snm="Vln."
V:1
"^Couplet" D2 |"^Sol" B6- | B2 ^A2 B2 | d2 G2 A2 | B2 B2 c2 |"^Ré7" A6 | z2 ^G2 A2 | D2 A2 G2 | %8
w: Mi-|gnonn'|* quand la|lu- ne é-|clai- re la|plaine|aux bruits|mé- lo- di-|
"^Sol" B2 z2 D2 | B6- | B2 ^A2 B2 | d2 G2 A2 | B2 B2 c2 |"^Ré7" A6 |"^Sim" z2 F2 B2 | %15
w: eux, lors-|que|* l'é- toi-|le du mus-|tè- re re-|vient|sou- rire|
"^La7" A2 G2 E2 |"^Ré7" D6- | D2 z2 D2 | c4 B2 | A4 ^G2 | A4 ^G2 |"^Sol" B2 F2 G2 | D6- | D4 D2 | %24
w: aux a- mou-|reux.|* As-|tu par-|fois sur|la co|li- * *|ne.|* Par-|
"^Solm" G4 A2 | _B4 G2 | _B4 d2 |"^Dom6" A6- | A6- |"^Ré7" A4 D2 | c4 B2 | A4 ^G2 | A4 ^A2 | %33
w: mi les|souf- fles|ca- res-|sants,||* En-|ten- du|la chan-|son di|
"^Sol" =B2 F2 G2 | D6- | D4 D2 |"^Solm" G4 A2 | _B4 G2 |"^Mib" _e4 _B2 |"^Ré7" d6- | d6- | d6- | %42
w: vi- * *|ne|* Que|chan- tent|les blés|fré- mis-|sants?|||
 d2 z2 B2 |"^Refrain""^Sol" d6- | d6 | d2 B2"^Do" e2 |"^Sol" d2 B2 c2 | B2 G2 A2 |"^Ré7" D6 | D6 | %50
w: * Mi-|gnon-||ne, quand le|soir des- cen-|dra sur la|ter-|re.|
 z2 !courtesy!^F2 G2 | A2 c2 B2 | d2 A2 B2 | c2 D2 A2 |"^Sol" B6- | B6- | B6 | B4 G2 | B6- | B6 | %60
w: Et que|le ros- si-|gnol vin- dra|chan- ter en-|cor'.|||Quand le|vent||
 z2 B2 e2 | d2 B2 c2 | B2 G2 A2 |"^Ré7" D6 | D6 | z2 F2 G2 | A2 c2 B2 |"^Sol" d6- | d6- | %69
w: souf- fle-|ra sur la|ver- te bru-|yè-|re|Nous i-|rons é- cou-|ter||
"^Ré7" d2 A2 B2 | c2 A2 d2 |"^Sol" B6- | B6 |"^Do" z2 E2 ^D2 |"^Ré7" E2 c2 A2 |"^Sol" B2 D2 G2 | %76
w: * la chan-|son des blés|d'or!||Nous i-|rons é- cou-|ter la chan-|
"^Ré7" F2 D2 A2 |"^Sol" G6- | G2 z2 |] %79
w: son des blés|d'or!||

